contributed-vectors/keyforge.svg

<svg xmlns="http://www.w3.org/2000/svg" xml:space="preserve" style="fill-rule:evenodd;clip-rule:evenodd;stroke-linecap:round;stroke-linejoin:round;stroke-miterlimit:1.5" viewBox="0 0 192 192"><path d="M164.5 21.5c0-5.519-4.481-10-10-10h-133c-5.519 0-10 4.481-10 10v133c0 5.519 4.481 10 10 10h133c5.519 0 10-4.481 10-10v-133Z" style="fill:#ba6561" transform="translate(8 8)"/><path d="m146.084 36.153-4.333 5.414-28.806 5.086-2.753 19.866 15.972-2.463 1.66 2.278-2.428 2.422-16.33 2.699-11.62 71.68-4.643 4.376 11.145-74.423-1.761-2.527 2.974-2.972 4.336-25.174 36.587-6.262Z" style="fill:#f9de81;stroke:#4a4a4a;stroke-width:1.78px" transform="matrix(.84386 0 0 .84386 16.228 24.507)"/><path d="m71.651 83.404-7.573 52.521-6.43-5.188 6.932-50.055-4.917-3.934 6.192-6.04 4.028-34.397 13.964-14.352-9.238 51.529 42.649-42.313-.116 7.981-31.139 30.457 19.804 27.157-1.21 11.729-25.071-32.356-7.875 7.261Z" style="fill:#f9de81;stroke:#4a4a4a;stroke-width:2.56px" transform="matrix(.58573 0 0 .58573 34.6 45.034)"/></svg>

<?xml version="1.0" encoding="UTF-8" standalone="no"?>
<!DOCTYPE svg PUBLIC "-//W3C//DTD SVG 1.1//EN" "http://www.w3.org/Graphics/SVG/1.1/DTD/svg11.dtd">
<svg width="100%" height="100%" viewBox="0 0 192 192" version="1.1" xmlns="http://www.w3.org/2000/svg" xmlns:xlink="http://www.w3.org/1999/xlink" xml:space="preserve" xmlns:serif="http://www.serif.com/" style="fill-rule:evenodd;clip-rule:evenodd;stroke-linecap:round;stroke-linejoin:round;stroke-miterlimit:1.5;">
    <g id="Layer1">
        <g transform="matrix(1,0,0,1,8,8)">
            <path d="M164.5,21.5C164.5,15.981 160.019,11.5 154.5,11.5L21.5,11.5C15.981,11.5 11.5,15.981 11.5,21.5L11.5,154.5C11.5,160.019 15.981,164.5 21.5,164.5L154.5,164.5C160.019,164.5 164.5,160.019 164.5,154.5L164.5,21.5Z" style="fill:rgb(186,101,97);"/>
        </g>
        <g transform="matrix(0.843863,0,0,0.843863,16.228,15.8328)">
            <g transform="matrix(1,0,0,1,0,10.2788)">
                <path d="M146.084,36.153L141.751,41.567L112.945,46.653L110.192,66.519L126.164,64.056L127.824,66.334L125.396,68.756L109.066,71.455L97.446,143.135L92.803,147.511L103.948,73.088L102.187,70.561L105.161,67.589L109.497,42.415L146.084,36.153Z" style="fill:rgb(249,222,129);stroke:rgb(74,74,74);stroke-width:1.78px;"/>
            </g>
            <g transform="matrix(0.69411,0,0,0.69411,21.7713,34.6046)">
                <path d="M71.651,83.404L64.078,135.925L57.648,130.737L64.58,80.682L59.663,76.748L65.855,70.708L69.883,36.311L83.847,21.959L74.609,73.488L117.258,31.175L117.142,39.156L86.003,69.613L105.807,96.77L104.597,108.499L79.526,76.143L71.651,83.404Z" style="fill:rgb(249,222,129);stroke:rgb(74,74,74);stroke-width:2.56px;"/>
            </g>
        </g>
    </g>
</svg>
